images/ic_token_ibzrx.svg

<svg height="250" viewBox="0 0 250 250" width="250" xmlns="http://www.w3.org/2000/svg" xmlns:xlink="http://www.w3.org/1999/xlink"><linearGradient id="a"><stop offset=".159" stop-color="#003cda"/><stop offset="1" stop-color="#33dfcc"/></linearGradient><linearGradient id="b" gradientTransform="matrix(.976562 0 0 -.976562 0 251.249999)" gradientUnits="userSpaceOnUse" x1="239.360001" x2="34.560001" xlink:href="#a" y1="17.92" y2="222.720001"/><linearGradient id="c" gradientTransform="matrix(.976562 0 0 -.976562 0 251.249999)" gradientUnits="userSpaceOnUse" x1="197.600006" x2="69.599998" xlink:href="#a" y1="59.68" y2="187.679993"/><path d="m125 48.242188c15.234375 0 30.078125 4.492187 42.675781 12.988281 12.597657 8.398437 22.460938 20.410156 28.320313 34.472656s7.324218 29.492187 4.394531 44.335937c-2.929687 14.941407-10.253906 28.613282-20.996094 39.355469-10.742187 10.742188-24.414062 18.066407-39.355469 20.996094-14.941406 2.929687-30.371093 1.464844-44.335937-4.394531-14.0625-5.859375-26.074219-15.625-34.472656-28.320313-8.496094-12.597656-12.988281-27.441406-12.988281-42.675781 0-20.3125 8.105468-39.84375 22.558593-54.296875 14.355469-14.355469 33.886719-22.460937 54.199219-22.460937zm0-48.242188c-24.707031 0-48.925781 7.324219-69.433594 21.09375-20.605468 13.671875-36.621094 33.203125-46.09375 56.054688-9.472656 22.851562-11.914062 47.949218-7.128906 72.265624 4.785156 24.21875 16.699219 46.484376 34.179688 63.964844 17.480468 17.480469 39.746093 29.394532 63.964843 34.179688s49.414063 2.34375 72.265625-7.128906c22.851563-9.472657 42.382813-25.488282 56.054688-45.996094 13.769531-20.507813 21.09375-44.726563 21.09375-69.433594 0-33.105469-13.183594-64.941406-36.621094-88.378906-23.339844-23.4375-55.175781-36.621094-88.28125-36.621094zm0 0" fill="url(#b)"/><path d="m125 222.65625c53.90625 0 97.65625-43.75 97.65625-97.65625s-43.75-97.65625-97.65625-97.65625-97.65625 43.75-97.65625 97.65625 43.75 97.65625 97.65625 97.65625zm0 0" fill="#fff"/><path d="m46.875 125c0-43.164062 34.960938-78.125 78.125-78.125s78.125 34.960938 78.125 78.125-34.960938 78.125-78.125 78.125-78.125-34.960938-78.125-78.125zm0 0" fill="url(#c)"/><path d="m92.285156 54.003906c4.980469-2.246094 10.15625-4.101562 15.625-5.273437v32.714843h-15.625zm-43.652344 54.394532c1.171876-5.46875 2.929688-10.742188 5.175782-15.722657h80.46875c11.71875 0 21.289062 9.570313 21.289062 21.289063v20.800781c0 11.816406-9.472656 21.289063-21.289062 21.289063h-20.703125c-11.71875 0-21.289063-9.570313-21.289063-21.289063v-15.136719h15.625v15.039063c0 3.125 2.441406 5.566406 5.566406 5.566406h20.703126c3.125 0 5.566406-2.441406 5.566406-5.566406v-20.605469c0-3.125-2.441406-5.566406-5.566406-5.566406h-85.546876zm0 0" fill="#fff"/></svg>

<svg xmlns="http://www.w3.org/2000/svg" xmlns:xlink="http://www.w3.org/1999/xlink" width="250px" height="250px" viewBox="0 0 250 250" version="1.1">
<defs>
<linearGradient id="linear0" gradientUnits="userSpaceOnUse" x1="239.360001" y1="17.92" x2="34.560001" y2="222.720001" gradientTransform="matrix(0.976562,0,0,-0.976562,0,251.249999)">
<stop offset="0.159" style="stop-color:rgb(0%,23.529412%,85.490197%);stop-opacity:1;"/>
<stop offset="1" style="stop-color:rgb(20%,87.450981%,80.000001%);stop-opacity:1;"/>
</linearGradient>
<linearGradient id="linear1" gradientUnits="userSpaceOnUse" x1="197.600006" y1="59.68" x2="69.599998" y2="187.679993" gradientTransform="matrix(0.976562,0,0,-0.976562,0,251.249999)">
<stop offset="0.159" style="stop-color:rgb(0%,23.529412%,85.490197%);stop-opacity:1;"/>
<stop offset="1" style="stop-color:rgb(20%,87.450981%,80.000001%);stop-opacity:1;"/>
</linearGradient>
</defs>
<g id="surface1">
<path style=" stroke:none;fill-rule:nonzero;fill:url(#linear0);" d="M 125 48.242188 C 140.234375 48.242188 155.078125 52.734375 167.675781 61.230469 C 180.273438 69.628906 190.136719 81.640625 195.996094 95.703125 C 201.855469 109.765625 203.320312 125.195312 200.390625 140.039062 C 197.460938 154.980469 190.136719 168.652344 179.394531 179.394531 C 168.652344 190.136719 154.980469 197.460938 140.039062 200.390625 C 125.097656 203.320312 109.667969 201.855469 95.703125 195.996094 C 81.640625 190.136719 69.628906 180.371094 61.230469 167.675781 C 52.734375 155.078125 48.242188 140.234375 48.242188 125 C 48.242188 104.6875 56.347656 85.15625 70.800781 70.703125 C 85.15625 56.347656 104.6875 48.242188 125 48.242188 Z M 125 0 C 100.292969 0 76.074219 7.324219 55.566406 21.09375 C 34.960938 34.765625 18.945312 54.296875 9.472656 77.148438 C 0 100 -2.441406 125.097656 2.34375 149.414062 C 7.128906 173.632812 19.042969 195.898438 36.523438 213.378906 C 54.003906 230.859375 76.269531 242.773438 100.488281 247.558594 C 124.707031 252.34375 149.902344 249.902344 172.753906 240.429688 C 195.605469 230.957031 215.136719 214.941406 228.808594 194.433594 C 242.578125 173.925781 249.902344 149.707031 249.902344 125 C 249.902344 91.894531 236.71875 60.058594 213.28125 36.621094 C 189.941406 13.183594 158.105469 0 125 0 Z M 125 0 "/>
<path style=" stroke:none;fill-rule:nonzero;fill:rgb(100%,100%,100%);fill-opacity:1;" d="M 125 222.65625 C 178.90625 222.65625 222.65625 178.90625 222.65625 125 C 222.65625 71.09375 178.90625 27.34375 125 27.34375 C 71.09375 27.34375 27.34375 71.09375 27.34375 125 C 27.34375 178.90625 71.09375 222.65625 125 222.65625 Z M 125 222.65625 "/>
<path style=" stroke:none;fill-rule:nonzero;fill:url(#linear1);" d="M 46.875 125 C 46.875 81.835938 81.835938 46.875 125 46.875 C 168.164062 46.875 203.125 81.835938 203.125 125 C 203.125 168.164062 168.164062 203.125 125 203.125 C 81.835938 203.125 46.875 168.164062 46.875 125 Z M 46.875 125 "/>
<path style=" stroke:none;fill-rule:nonzero;fill:rgb(100%,100%,100%);fill-opacity:1;" d="M 92.285156 54.003906 C 97.265625 51.757812 102.441406 49.902344 107.910156 48.730469 L 107.910156 81.445312 L 92.285156 81.445312 Z M 48.632812 108.398438 C 49.804688 102.929688 51.5625 97.65625 53.808594 92.675781 L 134.277344 92.675781 C 145.996094 92.675781 155.566406 102.246094 155.566406 113.964844 L 155.566406 134.765625 C 155.566406 146.582031 146.09375 156.054688 134.277344 156.054688 L 113.574219 156.054688 C 101.855469 156.054688 92.285156 146.484375 92.285156 134.765625 L 92.285156 119.628906 L 107.910156 119.628906 L 107.910156 134.667969 C 107.910156 137.792969 110.351562 140.234375 113.476562 140.234375 L 134.179688 140.234375 C 137.304688 140.234375 139.746094 137.792969 139.746094 134.667969 L 139.746094 114.0625 C 139.746094 110.9375 137.304688 108.496094 134.179688 108.496094 L 48.632812 108.496094 Z M 48.632812 108.398438 "/>
</g>
</svg>
